icons/testjs.svg

<svg width="16" height="16" viewBox="0 0 16 16" fill="none" xmlns="http://www.w3.org/2000/svg">
<path d="M13.6287 10.75L9.97986 6.33V4H10.5212V3H5.10745V4H5.64883V6.35L2.29229 10.87C2.09756 11.1895 1.99682 11.5506 2.00008 11.9173C2.00334 12.2839 2.11049 12.6434 2.31088 12.9599C2.51126 13.2765 2.79789 13.539 3.14226 13.7215C3.48662 13.904 3.87671 14 4.27373 14H11.7339C12.1432 13.9987 12.5445 13.8954 12.8955 13.7011C13.2465 13.5067 13.5342 13.2284 13.7282 12.8956C13.9222 12.5628 14.0154 12.1878 13.9979 11.8102C13.9804 11.4325 13.8529 11.0663 13.6287 10.75V10.75ZM12.7734 12.43C12.6685 12.6089 12.5114 12.757 12.3201 12.8578C12.1287 12.9585 11.9107 13.0078 11.6906 13H4.27373C4.06803 13.0035 3.86486 12.9577 3.68401 12.8672C3.50316 12.7766 3.35079 12.6443 3.24176 12.4832C3.13272 12.3221 3.07073 12.1376 3.06183 11.9478C3.05293 11.7579 3.09742 11.5692 3.19097 11.4L6.73159 6.65V4H8.8971V6.67L12.7409 11.31C12.8523 11.4776 12.914 11.6694 12.9197 11.866C12.9254 12.0626 12.8749 12.2571 12.7734 12.43V12.43Z" fill="#FBB03B"/>
<path d="M10.3183 10H5.5626L4 11.9606L4.09059 11.9998H11.8922C11.9114 12.0008 11.9305 11.9975 11.9468 11.9905C11.963 11.9834 11.9757 11.973 11.9828 11.9606C11.994 11.949 12 11.9354 12 11.9214C12 11.9075 11.994 11.8938 11.9828 11.8822L10.3183 10Z" fill="#FBB03B"/>
</svg>

<svg xmlns="http://www.w3.org/2000/svg" width="16" height="16" fill="none"><path fill="#FBB03B" d="m13.629 10.75-3.65-4.42V4h.542V3H5.107v1h.542v2.35l-3.357 4.52c-.194.32-.295.68-.292 1.047.003.367.11.726.31 1.043.201.316.488.579.832.761A2.42 2.42 0 0 0 4.274 14h7.46c.41-.001.81-.105 1.162-.299.35-.194.638-.473.832-.805a1.97 1.97 0 0 0 .27-1.086 1.99 1.99 0 0 0-.37-1.06Zm-.856 1.68a1.137 1.137 0 0 1-.453.428c-.191.1-.41.15-.63.142H4.275a1.272 1.272 0 0 1-.59-.133 1.159 1.159 0 0 1-.442-.384 1.03 1.03 0 0 1-.05-1.083l3.54-4.75V4h2.165v2.67l3.844 4.64a1.052 1.052 0 0 1 .033 1.12Z"/><path fill="#FBB03B" d="M10.318 10H5.563L4 11.96l.09.04h7.802a.124.124 0 0 0 .055-.01.075.075 0 0 0 .036-.03.056.056 0 0 0 .017-.039.057.057 0 0 0-.017-.039L10.318 10Z"/></svg>
